lib/flags/s/BQ-SE.svg

<svg xmlns="http://www.w3.org/2000/svg" fill="none" viewBox="0 0 16 12"><mask id="BQ-SE_svg__a" width="16" height="12" x="0" y="0" mask-type="alpha" maskUnits="userSpaceOnUse"><path fill="#fff" d="M0 0H16V12H0z"/></mask><g mask="url(#BQ-SE_svg__a)"><path fill="#00268D" fill-rule="evenodd" d="M0 0H16V12H0V0Z" clip-rule="evenodd"/><path fill="#00268D" stroke="#E31D1C" d="M0.5 0.5H15.5V11.5H0.5V0.5Z"/><path fill="#E31D1C" d="M7.5 0H8.5V12H7.5z"/><path fill="#E31D1C" d="M0 6.5H1V22.5H0z" transform="rotate(-90 0 6.5)"/><path fill="#fff" stroke="#E31D1C" d="M8.25725 2.57125L8 2.4169L7.74275 2.57125L2.74275 5.57125L2.02817 6L2.74275 6.42875L7.74275 9.42875L8 9.5831L8.25725 9.42875L13.2572 6.42875L13.9718 6L13.2572 5.57125L8.25725 2.57125Z"/><mask id="BQ-SE_svg__b" width="14" height="10" x="1" y="1" mask-type="alpha" maskUnits="userSpaceOnUse"><path fill="#fff" stroke="#fff" d="M8.25725 2.57125L8 2.4169L7.74275 2.57125L2.74275 5.57125L2.02817 6L2.74275 6.42875L7.74275 9.42875L8 9.5831L8.25725 9.42875L13.2572 6.42875L13.9718 6L13.2572 5.57125L8.25725 2.57125Z"/></mask><g mask="url(#BQ-SE_svg__b)"><path fill="#059334" d="M4.82256 7.80005C5.00189 7.80005 13.75 7.80005 13.75 7.80005L12.8061 6.84294C12.8061 6.84294 10.9185 4.95044 10.7971 4.86371C10.6756 4.77697 10.4749 4.73954 10.2466 5.0152C10.0182 5.29086 9.88725 4.86371 9.69713 4.86371C9.50701 4.86371 9.42662 4.86371 9.15076 5.21739C8.8749 5.57107 7.88153 6.84294 7.88153 6.84294H6.42168C6.42168 6.84294 6.17542 6.63401 6.03507 6.70856C5.89472 6.7831 5.10415 5.88398 4.82256 5.81681C4.54096 5.74963 4.35568 6.06053 4.35568 6.30793C4.35568 6.55533 4.22317 6.08123 3.95374 6.22039C3.68431 6.35956 3.77118 6.70856 3.77118 6.70856C3.77118 6.70856 4.64322 7.80005 4.82256 7.80005Z"/><path fill="#FEDA00" fill-rule="evenodd" d="M7.00318 5.53415L6.38564 6L6.61224 5.23048L6 4.75943H6.76276L7.00318 4L7.25801 4.75943H8L7.39309 5.23048L7.62378 6L7.00318 5.53415Z" clip-rule="evenodd"/></g></g></svg>

<svg xmlns="http://www.w3.org/2000/svg" fill="none" viewBox="0 0 16 12"><mask id="BQ-SE_svg__a" width="16" height="12" x="0" y="0" maskUnits="userSpaceOnUse"><path fill="#fff" d="M0 0h16v12H0z"/></mask><g mask="url(#BQ-SE_svg__a)"><path fill="#00268D" fill-rule="evenodd" d="M0 0h16v12H0V0z" clip-rule="evenodd"/><path fill="#00268D" stroke="#E31D1C" d="M.5.5h15v11H.5V.5z"/><path fill="#E31D1C" d="M7.5 0h1v12h-1z"/><path fill="#E31D1C" d="M0 6.5v-1h16v1z"/><path fill="#fff" stroke="#E31D1C" d="M8.257 2.571L8 2.417l-.257.154-5 3L2.028 6l.715.429 5 3L8 9.583l.257-.154 5-3L13.972 6l-.715-.429-5-3z"/><mask id="BQ-SE_svg__b" width="14" height="10" x="1" y="1" maskUnits="userSpaceOnUse"><path fill="#fff" stroke="#fff" d="M8.257 2.571L8 2.417l-.257.154-5 3L2.028 6l.715.429 5 3L8 9.583l.257-.154 5-3L13.972 6l-.715-.429-5-3z"/></mask><g mask="url(#BQ-SE_svg__b)"><path fill="#059334" d="M4.823 7.8h8.927l-.944-.957s-1.887-1.893-2.009-1.98c-.121-.086-.322-.124-.55.152-.229.276-.36-.151-.55-.151-.19 0-.27 0-.546.353L7.88 6.843H6.42s-.246-.21-.386-.135c-.14.075-.93-.824-1.212-.891-.282-.067-.467.243-.467.49 0 .248-.133-.226-.402-.087-.27.14-.183.489-.183.489S4.643 7.8 4.823 7.8z"/><path fill="#FEDA00" fill-rule="evenodd" d="M7.003 5.534L6.386 6l.226-.77L6 4.76h.763l.24-.76.255.76H8l-.607.47.23.77-.62-.466z" clip-rule="evenodd"/></g></g></svg>
